X:12
T:विपद्वर्धनीय / Vipadvardhaniya
M:4/4
L:1/8
Q:1/4=108
K:Em
|: E,2 B,E GBEB | C,2 G,C EGCE | D,2 A,D FADF | B,,2 F,B, DFBD :|
| e2 B2 G2 E2 | c2 G2 E2 C2 | d2 A2 F2 D2 | b2 f2 d2 B2 |
